X:30
T:Jigs simple chords 1
M:3/4
L:1/8
K:D
f[eA,,] c[cA,CE] [c2A,,2] | [fA,CE][eA,,] c[cA,CE] [c2A,,2] | [fA,CE][eA,,] c[cA,CE] [c2A,,2] | [fA,CE][BB,,] c[BB,DF] [B2E,,2] | [fE,^G,B,D][eA,,] c[cA,CE] [c2A,,2] |
[fA,CE][eA,,] c[cA,CE] [c2A,,2] | [c/A,/C/E/]d/[eD,,] f[eD,F,A,] [dE,,]c | [BE,^G,B,D][AA,,] c[eA,CE] [a2A,,2] | [fA,CE][eA,,] c[cA,CE] [c2A,,2] |
[fA,CE][eA,,] c[cA,CE] [c2A,,2] | [fA,CE][eA,,] c[cA,CE] [c2A,,2] | [fA,CE][BB,,] c[BB,DF] [B2E,,2] | [fE,^G,B,D][eA,,] c[cA,CE] [c2A,,2] |
[fA,CE][eA,,] c[cA,CE] [c2A,,2] | [c/A,/C/E/]d/[eD,,] f[eD,F,A,] [dE,,]c | [BE,^G,B,D][AA,,] c[eA,CE] [aA,,]g | [gA,CE][f2D,,2][fD,F,A,] [FD,,]d |
[dD,F,A,][AD,,] F[AD,F,A,] [f2D,,2] | [e/D,/F,/A,/]f/[g2G,,2][gG,B,D] [eG,,]c | [dG,B,D][eE,,] f[dE,G,B,] [cA,,]B | [AA,CEG][fD,,] ^e[fD,F,A,] [dD,,]c |
[dD,F,A,][AD,,] F[AD,F,A,] [fD,,]e | [fD,F,A,][gG,,] f[gG,B,D] [AA,,]B | [cA,CEG][d2D,,2][D,F,A,] [d2D,,2] | [eD,F,A,][f2D,,2][fD,F,A,] [FD,,]d |
[dD,F,A,][AD,,] F[AD,F,A,] [f2D,,2] | [e/D,/F,/A,/]f/[g2G,,2][gG,B,D] [eG,,]c | [dG,B,D][eE,,] f[dE,G,B,] [cA,,]B | [AA,CEG][fD,,] ^e[fD,F,A,] [dD,,]c |
[dD,F,A,][AD,,] F[AD,F,A,] [fD,,]e | [fD,F,A,][gG,,] f[gG,B,D] [AA,,]B | [cA,CEG][d2D,,2][D,F,A,] [d2D,,2] |


